!!!COM:	Ockeghem, Johannes
!!!CDT:	~1425-1497/02/06
!!!OTL:	Fors seulement lattente
!!!AGN:	Song; Chanson
!!!SCT:	Ock3005
!!!SCA:	Ock3005
!!!voices:	3
!!!ONB:	The order and naming of the voices is correct.
**kern	**text	**text	**text	**kern	**text	**text	**text	**kern	**text	**text	**text
*staff3	*staff3	*staff3	*staff3	*staff2	*staff2	*staff2	*staff2	*staff1	*staff1	*staff1	*staff1
*Ivox	*	*	*	*Ivox	*	*	*	*Ivox	*	*	*
*I"Contra	*	*	*	*I"Discantus	*	*	*	*I"Tenor	*	*	*
*I'C	*	*	*	*I'D	*	*	*	*I'T	*	*	*
*clefF4	*	*	*	*clefG2	*	*	*	*clefG2	*	*	*
*k[]	*	*	*	*k[]	*	*	*	*k[]	*	*	*
*M2/1	*	*	*	*M2/1	*	*	*	*M2/1	*	*	*
*met(C|)	*	*	*	*met(C|)	*	*	*	*met(C|)	*	*	*
=1-	=1-	=1-	=1-	=1-	=1-	=1-	=1-	=1-	=1-	=1-	=1-
!!LO:TX:Z=12:t=Rondeau
0A	Fors	Vos-	Mon	0a	Fors	Vos-	Mon	0r	.	.	.
=2	=2	=2	=2	=2	=2	=2	=2	=2	=2	=2	=2
1A	seu-	-tre	des-	1a	seu-	-tre	des-	0r	.	.	.
1A	-le-	ri-	-con-	1a	-le-	ri-	-con-	.	.	.	.
=3	=3	=3	=3	=3	=3	=3	=3	=3	=3	=3	=3
[0c	-ment	-gueur	-fort	1.a	-ment	-gueur	-fort	0r	.	.	.
.	.	.	.	4g/	.	.	.	.	.	.	.
.	.	.	.	4f/	.	.	.	.	.	.	.
=4	=4	=4	=4	=4	=4	=4	=4	=4	=4	=4	=4
0c]	l'at-	tel-	tou-	1e	.	.	.	0r	.	.	.
.	.	.	.	1e	l'at-	tel-	tou-	.	.	.	.
=5	=5	=5	=5	=5	=5	=5	=5	=5	=5	=5	=5
1e	-ten-	-lement	-te	1g	-ten-	-lement	-te	0r	.	.	.
1e	-te	m'y	seu-	1g	-te	m'y	seu-	.	.	.	.
=6	=6	=6	=6	=6	=6	=6	=6	=6	=6	=6	=6
1.d	que	queurt	-le	1.f	que	queurt	-le	0r	.	.	.
4c\	.	.	.	2d/	.	.	.	.	.	.	.
4B\	.	.	.	.	.	.	.	.	.	.	.
=7	=7	=7	=7	=7	=7	=7	=7	=7	=7	=7	=7
0A	je	.	je	1f	je	.	je	0r	.	.	.
.	.	.	.	[1e	meu-	seu-	pleu-	.	.	.	.
=8	=8	=8	=8	=8	=8	=8	=8	=8	=8	=8	=8
1G	meu-	seu-	pleu-	2e/]	.	.	.	0r	.	.	.
.	.	.	.	2d/	.	.	.	.	.	.	.
1F	.	.	.	[1d	.	.	.	.	.	.	.
=9	=9	=9	=9	=9	=9	=9	=9	=9	=9	=9	=9
0E	.	.	.	1d]	.	.	.	0r	.	.	.
.	.	.	.	1c#i	.	.	.	.	.	.	.
=10	=10	=10	=10	=10	=10	=10	=10	=10	=10	=10	=10
1.D	.	.	.	0d	-re,	-re	-re,	0a	Fors	Vos-	Mon
4C/	.	.	.	.	.	.	.	.	.	.	.
4BB/	.	.	.	.	.	.	.	.	.	.	.
=11	=11	=11	=11	=11	=11	=11	=11	=11	=11	=11	=11
0AA	-re,	-re	-re,	0r	.	.	.	1a	seu-	-tre	des-
.	.	.	.	.	.	.	.	1a	-le-	ri-	-con-
=12	=12	=12	=12	=12	=12	=12	=12	=12	=12	=12	=12
0r	.	.	.	1.f	ment	gueur	fort	1.a	-ment	-gueur	-fort
.	.	.	.	4e/	.	.	.	4g/	.	.	.
.	.	.	.	4d/	.	.	.	4f/	.	.	.
=13	=13	=13	=13	=13	=13	=13	=13	=13	=13	=13	=13
0r	.	.	.	1.c	.	.	.	1e	.	.	.
.	.	.	.	.	.	.	.	1e	l'at-	tel-	tou-
.	.	.	.	2d/	l'at-	tel-	tou-	.	.	.	.
=14	=14	=14	=14	=14	=14	=14	=14	=14	=14	=14	=14
0r	.	.	.	1.e	-ten-	-lement	-te	1g	-ten-	-lement	-te
.	.	.	.	.	.	.	.	1a	-te	m'y	seu-
.	.	.	.	4d/	-te	m'y	seu-	.	.	.	.
.	.	.	.	4c/	.	.	.	.	.	.	.
=15	=15	=15	=15	=15	=15	=15	=15	=15	=15	=15	=15
0r	.	.	.	1d	que	queurt	-le	1b	que	queurt	-le
.	.	.	.	1e	je	.	je	1cc	je	.	je
=16	=16	=16	=16	=16	=16	=16	=16	=16	=16	=16	=16
0r	.	.	.	2d/	meu-	seu-	pleu-	1.dd	meu-	seu-	pleu-
.	.	.	.	1f	.	.	.	.	.	.	.
.	.	.	.	2e/	.	.	.	2cc\	.	.	.
=17	=17	=17	=17	=17	=17	=17	=17	=17	=17	=17	=17
0r	.	.	.	2d/	.	.	.	2b\	.	.	.
.	.	.	.	2c/	.	.	.	2a/	.	.	.
.	.	.	.	1B	.	.	.	1g	-re,	-re	-re,
=18	=18	=18	=18	=18	=18	=18	=18	=18	=18	=18	=18
[0D	En	Qu'en	En	0A	-re,	-re	-re,	1r	.	.	.
.	.	.	.	.	.	.	.	1a	En	Qu'en	En
=19	=19	=19	=19	=19	=19	=19	=19	=19	=19	=19	=19
1D]	.	.	.	1.d	En	Qu'en	En	1f	mon	ce	mau-
1BB	mon	.	.	.	.	.	.	1d	.	.	.
.	.	.	.	2B/	mon	ce	mau-	.	.	.	.
=20	=20	=20	=20	=20	=20	=20	=20	=20	=20	=20	=20
0AA	las	.	.	1c	las	par-	-di-	0e	las	par-	-di-
.	.	.	.	1A	.	.	.	.	.	.	.
=21	=21	=21	=21	=21	=21	=21	=21	=21	=21	=21	=21
0r	.	.	.	1B	cueur	-ti	-sant	1d	cueur	-ti	-sant
.	.	.	.	1c	nul	il	sur	1a	nul	il	sur
=22	=22	=22	=22	=22	=22	=22	=22	=22	=22	=22	=22
1r	.	.	.	1d	es-	fault	.	1b	es-	fault	.
1AA	es-	que	ma	1e	.	que	ma	1cc	.	que	ma
=23	=23	=23	=23	=23	=23	=23	=23	=23	=23	=23	=23
1BB	-poir	je	foy	1d	-poir	je	foy	1dd	-poir	je	foy
1C	.	.	.	[1a	ne	.	a	1ee	.	.	.
=24	=24	=24	=24	=24	=24	=24	=24	=24	=24	=24	=24
0D	.	.	.	1a]	.	.	.	1ff	ne	.	a
.	.	.	.	1a	de-	m'as-	tou-	1ff	de-	m'as-	tou-
=25	=25	=25	=25	=25	=25	=25	=25	=25	=25	=25	=25
0r	.	.	.	1f	-meu-	-seu-	-te heu-	1ff	-meu-	-seu-	-te heu-
.	.	.	.	[1g	.	.	.	1ee	.	.	.
=26	=26	=26	=26	=26	=26	=26	=26	=26	=26	=26	=26
0G	ne	m'as-	a	1g]	.	.	.	1.dd	.	.	.
.	.	.	.	1b-	.	.	.	.	.	.	.
.	.	.	.	.	.	.	.	4cc\	.	.	.
.	.	.	.	.	.	.	.	4b\	.	.	.
=27	=27	=27	=27	=27	=27	=27	=27	=27	=27	=27	=27
0A	de-	.	tou-	1.a	.	.	.	[0cc	-re,	-re,	-re
.	.	.	.	4g/	.	.	.	.	.	.	.
.	.	.	.	4f/	.	.	.	.	.	.	.
=28	=28	=28	=28	=28	=28	=28	=28	=28	=28	=28	=28
2.c\	-meu-	-seu-	-te heu-	2e/	.	.	.	0cc]	.	.	.
.	.	.	.	2f/	.	.	.	.	.	.	.
4d\	.	.	.	.	.	.	.	.	.	.	.
2e\	.	.	.	2e/	.	.	.	.	.	.	.
[2f\	.	.	.	[2a/	.	.	.	.	.	.	.
=29	=29	=29	=29	=29	=29	=29	=29	=29	=29	=29	=29
4f\]	.	.	.	2a/]	.	.	.	0r	.	.	.
4e\	.	.	.	.	.	.	.	.	.	.	.
2d\	.	.	.	2f/	.	.	.	.	.	.	.
2.c#i\	.	.	.	1e	.	.	.	.	.	.	.
4B\	.	.	.	.	.	.	.	.	.	.	.
=30	=30	=30	=30	=30	=30	=30	=30	=30	=30	=30	=30
1d	-re,	-re,	-re	1d	-re,	-re,	-re	1r	.	.	.
[1A	Car	Dont	Ma	1e	Car	Dont	Ma	1cc	Car	Dont	Ma
=31	=31	=31	=31	=31	=31	=31	=31	=31	=31	=31	=31
2A\]	.	.	.	1f	mon	je	le-	1dd	mon	je	le-
4G\	mon	je	le-	.	.	.	.	.	.	.	.
4F\	.	.	.	.	.	.	.	.	.	.	.
1E	ma-	n'ay	-au-	1g	ma-	n'ay	-au-	1ee	ma-	n'ay	-au-
=32	=32	=32	=32	=32	=32	=32	=32	=32	=32	=32	=32
1.D	-leur	bien	-t&eacute;,	1a	.	.	.	1.ff	-leur	bien	-t&eacute;,
.	.	.	.	[1a	-leur	bien	-t&eacute;,	.	.	.	.
4C/	.	.	.	.	.	.	.	4ee\	.	.	.
4BB/	.	.	.	.	.	.	.	4dd\	.	.	.
=33	=33	=33	=33	=33	=33	=33	=33	=33	=33	=33	=33
0AA	.	.	.	2a/]	.	.	.	0cc	.	.	.
.	.	.	.	4g/	.	.	.	.	.	.	.
.	.	.	.	4f/	.	.	.	.	.	.	.
.	.	.	.	1e	.	.	.	.	.	.	.
=34	=34	=34	=34	=34	=34	=34	=34	=34	=34	=34	=34
1A	si	qui	qui	1e	si	qui	qui	1cc	si	qui	qui
1c	tres-	en	tant	1e	tres-	en	tant	1cc	tres-	en	tant
=35	=35	=35	=35	=35	=35	=35	=35	=35	=35	=35	=35
0B-i	-fort	riens	m'a	1.f	-fort	riens	m'a	0dd	-fort	riens	m'a
.	.	.	.	4e/	.	.	.	.	.	.	.
.	.	.	.	4d/	.	.	.	.	.	.	.
=36	=36	=36	=36	=36	=36	=36	=36	=36	=36	=36	=36
0A	me	me	fait	1c	.	.	fait	0ee	me	me	fait
.	.	.	.	1cc	me	me	do-	.	.	.	.
=37	=37	=37	=37	=37	=37	=37	=37	=37	=37	=37	=37
1r	.	.	.	2b\	tour-	.	-len-	1dd	tour-	con-	do-
.	.	.	.	2a/	.	.	.	.	.	.	.
1A	tour-	con-	do-	[1a	.	con-	.	1cc	.	.	.
=38	=38	=38	=38	=38	=38	=38	=38	=38	=38	=38	=38
0E	.	.	.	1a]	.	.	.	0b	-men-	-ten-	-len-
.	.	.	.	1g	.	.	.	.	.	.	.
=39	=39	=39	=39	=39	=39	=39	=39	=39	=39	=39	=39
1F	-men-	-ten-	-len-	1a	-men-	-ten-	.	[0a;	-te	-te	-te.
[1D	.	.	.	2f/	.	.	.	.	.	.	.
.	.	.	.	[2d/	.	.	.	.	.	.	.
=40	=40	=40	=40	=40	=40	=40	=40	=40	=40	=40	=40
2D\]	.	.	.	2d/]	.	.	.	0a_	.	.	.
2AA/	.	.	.	2c/	.	.	.	.	.	.	.
2BB/	.	.	.	2d/	.	.	.	.	.	.	.
2C/	.	.	.	2e/	.	.	.	.	.	.	.
=41	=41	=41	=41	=41	=41	=41	=41	=41	=41	=41	=41
2D\	.	.	.	2f/	.	.	.	0a]	.	.	.
2E\	.	.	.	2e/	.	.	.	.	.	.	.
1AA;	-te	-te&	-te.	1c;	-te	-te&	-te.	.	.	.	.
=42	=42	=42	=42	=42	=42	=42	=42	=42	=42	=42	=42
1.A	Qu'il	.	Las,	0a	Qu'il	.	Las,	0r	.	.	.
2B\	.	.	.	.	.	.	.	.	.	.	.
=43	=43	=43	=43	=43	=43	=43	=43	=43	=43	=43	=43
1c	n'est	.	que	1g	n'est	.	que	0r	.	.	.
1d	.	.	.	1f	.	.	.	.	.	.	.
=44	=44	=44	=44	=44	=44	=44	=44	=44	=44	=44	=44
1.c	dou-	.	je	2.e/	dou-	.	je	0r	.	.	.
.	.	.	.	4f/	.	.	.	.	.	.	.
.	.	.	.	2g/	.	.	.	.	.	.	.
[2A\	.	.	.	2a/	.	.	.	.	.	.	.
=45	=45	=45	=45	=45	=45	=45	=45	=45	=45	=45	=45
1A]	.	.	.	2b\	.	.	.	0r	.	.	.
.	.	.	.	1cc	.	.	.	.	.	.	.
1F	.	.	.	.	.	.	.	.	.	.	.
.	.	.	.	2a/	.	.	.	.	.	.	.
=46	=46	=46	=46	=46	=46	=46	=46	=46	=46	=46	=46
1A	-leur	.	suis	4b-i\	.	.	.	0r	.	.	.
.	.	.	.	4a/	.	.	.	.	.	.	.
.	.	.	.	4g/	.	.	.	.	.	.	.
.	.	.	.	4f/	.	.	.	.	.	.	.
1G	.	.	.	2.e/	.	.	.	.	.	.	.
.	.	.	.	4d/	.	.	.	.	.	.	.
=47	=47	=47	=47	=47	=47	=47	=47	=47	=47	=47	=47
0F	Qu'il	.	Las,	0f	-leur,	.	suis	0cc	Qu'il	&	Las,
=48	=48	=48	=48	=48	=48	=48	=48	=48	=48	=48	=48
1B-	n'est	.	que	0r	.	.	.	1dd	n'est	.	que
1B-	dou-	.	je	.	.	.	.	1dd	dou-	.	je
=49	=49	=49	=49	=49	=49	=49	=49	=49	=49	=49	=49
1A	-leur	.	suis	0cc	Qu'il	.	Las,	1cc	-leur	.	suis
1F	que	.	de	.	.	.	.	1a	que	.	de
=50	=50	=50	=50	=50	=50	=50	=50	=50	=50	=50	=50
1r	.	.	.	1dd	n'est	.	que	1b-	par	.	vi-
1G	par	.	vi-	1dd	dou-	.	je	1b-	vous	.	-vre
=51	=51	=51	=51	=51	=51	=51	=51	=51	=51	=51	=51
0A	vous	.	-vre	1cc	-leur	.	suis	1a	je	.	mal
.	.	.	.	1a	que	.	de	1f	.	.	.
=52	=52	=52	=52	=52	=52	=52	=52	=52	=52	=52	=52
1G	je	.	mal	1b-i	par	.	vi-	0g	ne	.	con-
1E	ne	.	con-	1b-i	vous	.	-vre	.	.	.	.
=53	=53	=53	=53	=53	=53	=53	=53	=53	=53	=53	=53
[0F	sen-	.	-ten-	1a	je	.	mal	1.f	sen-	.	-ten-
.	.	.	.	[1cc	.	.	.	.	.	.	.
.	.	.	.	.	.	.	.	4e/	.	.	.
.	.	.	.	.	.	.	.	4d/	.	.	.
=54	=54	=54	=54	=54	=54	=54	=54	=54	=54	=54	=54
1F]	.	.	.	2cc\]	.	.	.	1c	-te,	.	-te
.	.	.	.	4b-i\	ne	.	con-	.	.	.	.
.	.	.	.	4a/	.	.	.	.	.	.	.
1E	-te,	.	-te	1g	sen-	.	-ten-	1r	.	.	.
=55	=55	=55	=55	=55	=55	=55	=55	=55	=55	=55	=55
1r	.	.	.	0f	-te,	.	-te	0cc	Pour-	.	Quant
[1F	Pour-	.	Quant	.	.	.	.	.	.	.	.
=56	=56	=56	=56	=56	=56	=56	=56	=56	=56	=56	=56
0F_	.	.	.	0f	Pour-	.	Quant	1a	-ce	.	de
.	.	.	.	.	.	.	.	1a	que	.	par
=57	=57	=57	=57	=57	=57	=57	=57	=57	=57	=57	=57
1F]	.	.	.	1d	-ce	.	de	0f	suis	.	vous
1D	-ce	.	de	1d	que	.	par	.	.	.	.
=58	=58	=58	=58	=58	=58	=58	=58	=58	=58	=58	=58
0AA	que	.	par	0c	suis	.	vous	1.e	de	.	n'ay
.	.	.	.	.	.	.	.	2f/	.	.	.
=59	=59	=59	=59	=59	=59	=59	=59	=59	=59	=59	=59
0r	.	.	.	1c	de	.	n'ay	1g	.	.	.
.	.	.	.	1f	vous	.	.	1a	vous	.	.
=60	=60	=60	=60	=60	=60	=60	=60	=60	=60	=60	=60
0AA	per-	.	riens	2e/	per-	.	riens	2g/	per-	.	riens
.	.	.	.	1d	.	.	.	2f/	.	.	.
.	.	.	.	.	.	.	.	1e	-dre	.	.
.	.	.	.	2c#i/	.	.	.	.	.	.	.
=61	=61	=61	=61	=61	=61	=61	=61	=61	=61	=61	=61
[0D	-dre	.	.	0d	-dre	.	.	1r	.	.	.
.	.	.	.	.	.	.	.	[1d	bien	.	qui
=62	=62	=62	=62	=62	=62	=62	=62	=62	=62	=62	=62
0D_	.	.	.	1B	bien	.	qui	1d]	.	.	.
.	.	.	.	1A	.	.	.	[1f	seu-	.	me
=63	=63	=63	=63	=63	=63	=63	=63	=63	=63	=63	=63
0D]	.	.	.	[0d	seu-	.	me	2f/]	.	.	.
.	.	.	.	.	.	.	.	2g/	.	.	de-
.	.	.	.	.	.	.	.	[1a	.	.	-meu-
=64	=64	=64	=64	=64	=64	=64	=64	=64	=64	=64	=64
1BB	bien	.	de-	1d]	.	.	.	2a/]	.	.	.
.	.	.	.	.	.	.	.	2b\	.	.	.
1AA	.	.	.	1c	.	.	de-	[1cc	.	.	.
=65	=65	=65	=65	=65	=65	=65	=65	=65	=65	=65	=65
0C	seu-	.	-meu-	0e	.	.	-meu-	2cc\]	.	.	.
.	.	.	.	.	.	.	.	2b\	.	.	.
.	.	.	.	.	.	.	.	[1g	.	.	.
=66	=66	=66	=66	=66	=66	=66	=66	=66	=66	=66	=66
0E	.	.	.	1c	.	.	.	2g/]	.	.	.
.	.	.	.	.	.	.	.	2a/	.	.	.
.	.	.	.	2d/	.	.	.	2b\	.	.	.
.	.	.	.	2e/	.	.	.	2cc\	.	.	.
=67	=67	=67	=67	=67	=67	=67	=67	=67	=67	=67	=67
0D	.	.	.	2f/	.	.	.	1.dd	.	.	.
.	.	.	.	1d	.	.	.	.	.	.	.
.	.	.	.	[2f/	.	.	.	2cc\	.	.	.
=68	=68	=68	=68	=68	=68	=68	=68	=68	=68	=68	=68
0A	.	.	.	2f/]	.	.	.	2a/	.	.	.
.	.	.	.	1e	.	.	.	2g/	.	.	.
.	.	.	.	.	.	.	.	1cc	.	.	.
.	.	.	.	2c/	.	.	.	.	.	.	.
=69	=69	=69	=69	=69	=69	=69	=69	=69	=69	=69	=69
0E	.	.	.	2d/	.	.	.	2b\	.	.	.
.	.	.	.	2A/	.	.	.	1a	.	.	.
.	.	.	.	1B	.	.	.	.	.	.	.
.	.	.	.	.	.	.	.	2g#i/	.	.	.
=70	=70	=70	=70	=70	=70	=70	=70	=70	=70	=70	=70
0AAl	-re.	.	-re	0Al	-re.	.	-re	0al	-re.	.	-re
==	==	==	==	==	==	==	==	==	==	==	==
*-	*-	*-	*-	*-	*-	*-	*-	*-	*-	*-	*-
!!!RDF**kern: l=long note in original notation
!!!RDF**kern: i=editorial accidental
!!!RDF**kern: V=start of tuplet marker
!!!RDF**kern: Z=end of tuplet marker
!!!ENC:	Chris Gage
!!!END:	2015/11/01/
!!!EED:	Jesse Rodin
!!!EEV:	2015/11/01/
!!!ONB:	Translated from MusicXML and edited on 2015/11/01/ by Craig Sapp
!!muse2ps: C^@{COM}^i2I150v100,100,120Q16z18c62l2600
